X: 41
T: THE TIDE COME IN
B: "Old English Country Dances", Frank Kidson ed., William Reeves pub., London 1890
Z: 2010-9-26 John Chambers <jc:trillian.mit.edu>
M: C
L: 1/8
K: G
BA |\
G2d2 d2cB | c2e2 e2BA | G2d2 d2AG | F2A2 A2BA |
G2d2 d2cB | cdef g2d2 | (cdec) ABcA | B2G2 G2 ||
ef |\
gfgd (BGB)d | e2d2 d2ef | gfgd BGBd | c2A2 A2ef |
gfgd BGBd | efge edcB | cdec ABcA | B2G2 G2 |]


%%sep 1 1 500

%%sep 1 1 500

